icons/curve-16.svg

<svg id="icons" xmlns="http://www.w3.org/2000/svg" viewBox="0 0 16 16"><defs><style>.cls-1{fill:none;}</style></defs><path d="M12,1V2.04541A10.90712,10.90712,0,0,0,6.69189,4H4V6.70135A10.94088,10.94088,0,0,0,2.06458,12H1v3H4V12H3.066A9.94442,9.94442,0,0,1,5.02454,7H7V5.023a9.91654,9.91654,0,0,1,5-1.96887V4h3V1ZM3,14H2V13H3ZM6,6H5V5H6Zm8-3H13V2h1Z"/><rect class="cls-1" width="16" height="16"/></svg>

<svg xmlns="http://www.w3.org/2000/svg" viewBox="0 0 16 16"><path d="M12 1v1.045A10.907 10.907 0 0 0 6.692 4H4v2.701A10.94 10.94 0 0 0 2.065 12H1v3h3v-3h-.934a9.944 9.944 0 0 1 1.959-5H7V5.023a9.917 9.917 0 0 1 5-1.969V4h3V1zM3 14H2v-1h1zm3-8H5V5h1zm8-3h-1V2h1z"/><path fill="none" d="M0 0h16v16H0z"/></svg>
